icons/shield-filled.svg

<svg width="24" height="24" viewBox="0 0 24 24" fill="none" xmlns="http://www.w3.org/2000/svg">
<path fill-rule="evenodd" clip-rule="evenodd" d="M12 22C12.587 22 13.1 21.68 13.1 21.68C14.892 20.507 16.19 19.138 16.997 18.343C18.467 16.893 20 14.229 20 12V7.008C20 7.008 20.026 6.484 19.713 5.973C19.5205 5.64675 19.2364 5.38422 18.896 5.218L12.896 2.211C12.6167 2.07502 12.3106 2.00294 12 2C11.701 2 11.402 2.07 11.104 2.21L5.104 5.218C4.78705 5.4036 4.51923 5.66251 4.323 5.973C4 6.465 4 7.006 4 7.006V12C4 14.253 5.502 16.889 7 18.343C7.808 19.126 9.114 20.497 10.918 21.686C10.918 21.686 11.413 22 12 22Z" fill="#3A3A47"/>
</svg>

<svg xmlns="http://www.w3.org/2000/svg" width="24" height="24" viewBox="0 0 24 24">
    <path fill="#3A3A47" fill-rule="evenodd" d="M12 22c.587 0 1.1-.32 1.1-.32 1.792-1.173 3.09-2.542 3.897-3.337C18.467 16.893 20 14.229 20 12V7.008s.026-.524-.287-1.035a1.934 1.934 0 0 0-.817-.755l-6-3.007A2.092 2.092 0 0 0 12 2c-.299 0-.598.07-.896.21l-6 3.008a2.297 2.297 0 0 0-.781.755C4 6.465 4 7.006 4 7.006V12c0 2.253 1.502 4.889 3 6.343.808.783 2.114 2.154 3.918 3.343 0 0 .495.314 1.082.314z"/>
</svg>
